X:636
T:Da Blacksmith
C:Joe Buchanan's Scottish Tome - Page 190.1
I:190 1
C:Tom Anderson
R:Reel
Z:Carl Allison
L:1/8
M:4/4
K:D
c | d2 AF A,DFA | dd/d/ ed cAA=c | BAGB AGFA | GEFD EA, A,3 c |
d2 AF A,DFA | dd/d/ ed cAA=c | BAGB Adfa | gfea fd d2 :|
g | fgaf Aafd | BB/B/ ed cAAg | fgaf Aafd | Bgfe fddg |
fgaf Aafd | BB/B/ ed cA A3 c | d2 AF GABG | Agfe fd d2 :|
